src/images/in-yan-icon.svg

<svg viewBox="0 0 26 26" fill="none" xmlns="http://www.w3.org/2000/svg">
<path fill-rule="evenodd" clip-rule="evenodd" d="M13 26C20.1797 26 26 20.1797 26 13C26 5.8203 20.1797 0 13 0C5.8203 0 0 5.8203 0 13C0 20.1797 5.8203 26 13 26ZM8.82689 21.5522C6.99356 20.5522 3.32689 17.5522 3.32689 13.5522C3.32689 8.55218 6.82689 4.55218 11.8269 4.55218C16.8269 4.55218 16.8269 8.55218 16.8269 9.55218C16.8269 10.5522 15.8269 13.5522 12.3269 13.5522C8.82689 13.5522 7.82689 16.5522 7.82689 18.0522C7.82689 19.5522 8.32689 20.5522 8.82689 21.5522ZM14.8269 8.55218C14.8269 9.38061 14.1553 10.0522 13.3269 10.0522C12.4985 10.0522 11.8269 9.38061 11.8269 8.55218C11.8269 7.72376 12.4985 7.05218 13.3269 7.05218C14.1553 7.05218 14.8269 7.72376 14.8269 8.55218ZM13.3269 20.0521C14.1553 20.0521 14.8269 19.3806 14.8269 18.5521C14.8269 17.7237 14.1553 17.0521 13.3269 17.0521C12.4985 17.0521 11.8269 17.7237 11.8269 18.5521C11.8269 19.3806 12.4985 20.0521 13.3269 20.0521Z" fill="current"/>
</svg>

<?xml version="1.0"?>
<svg viewBox="0 0 26 26" xmlns="http://www.w3.org/2000/svg" xmlns:svg="http://www.w3.org/2000/svg">
  <path clip-rule="evenodd" d="m13,26c7.18,0 13,-5.82 13,-13c0,-7.18 -5.82,-13 -13,-13c-7.18,0 -13,5.82 -13,13c0,7.18 5.82,13 13,13zm-4.17,-4.45c-1.84,-1 -5.5,-4 -5.5,-8c0,-5 3.5,-9 8.5,-9c5,0 5,4 5,5c0,1 -1,4 -4.5,4c-3.5,0 -4.5,3 -4.5,4.5c0,1.5 0.5,2.5 1,3.5zm6,-13c0,0.83 -0.67,1.5 -1.5,1.5c-0.83,0 -1.5,-0.67 -1.5,-1.5c0,-0.83 0.67,-1.5 1.5,-1.5c0.83,0 1.5,0.67 1.5,1.5zm-1.5,11.5c0.83,0 1.5,-0.67 1.5,-1.5c0,-0.83 -0.67,-1.5 -1.5,-1.5c-0.83,0 -1.5,0.67 -1.5,1.5c0,0.83 0.67,1.5 1.5,1.5z" fill="current" fill-rule="evenodd" id="svg_1" transform="rotate(-180 13 13)"/>
</svg>
